Pods/ProtonCore-UIFoundations/libraries/UIFoundations/Sources/Assets.xcassets/Images/IconSet/ic-trash.imageset/ic-trash.svg

<svg width="24" height="24" viewBox="0 0 24 24" fill="none" xmlns="http://www.w3.org/2000/svg">
<path fill-rule="evenodd" clip-rule="evenodd" d="M9.75 1.5C9.46592 1.5 9.20622 1.6605 9.07918 1.91459L7.78647 4.5H3C2.58579 4.5 2.25 4.83579 2.25 5.25C2.25 5.66421 2.58579 6 3 6H4.53332L5.18569 20.3522C5.24031 21.5538 6.23045 22.5 7.43337 22.5H16.5666C17.7695 22.5 18.7597 21.5538 18.8143 20.3522L19.4667 6H21C21.4142 6 21.75 5.66421 21.75 5.25C21.75 4.83579 21.4142 4.5 21 4.5H16.2135L14.9208 1.91459C14.7938 1.6605 14.5341 1.5 14.25 1.5H9.75ZM14.5365 4.5L13.7865 3H10.2135L9.46353 4.5H14.5365ZM6.03487 6H17.9651L17.3159 20.2841C17.2977 20.6846 16.9676 21 16.5666 21H7.43337C7.0324 21 6.70235 20.6846 6.68414 20.2841L6.03487 6ZM10.5 9C10.5 8.58579 10.1642 8.25 9.75 8.25C9.33579 8.25 9 8.58579 9 9V18C9 18.4142 9.33579 18.75 9.75 18.75C10.1642 18.75 10.5 18.4142 10.5 18V9ZM15 9C15 8.58579 14.6642 8.25 14.25 8.25C13.8358 8.25 13.5 8.58579 13.5 9V18C13.5 18.4142 13.8358 18.75 14.25 18.75C14.6642 18.75 15 18.4142 15 18V9Z" fill="#0C0C14"/>
</svg>

<svg xmlns="http://www.w3.org/2000/svg" width="24" height="24" viewBox="0 0 24 24">
  <g class="ic-trash">
    <path fill-rule="evenodd" d="M9.75 1.5a.75.75 0 0 0-.67.415L7.785 4.5H3A.75.75 0 0 0 3 6h1.533l.653 14.352A2.25 2.25 0 0 0 7.433 22.5h9.134a2.25 2.25 0 0 0 2.247-2.148L19.467 6H21a.75.75 0 0 0 0-1.5h-4.787l-1.292-2.585a.75.75 0 0 0-.671-.415h-4.5Zm4.787 3-.75-1.5h-3.574l-.75 1.5h5.074ZM6.034 6h11.93l-.65 14.284a.75.75 0 0 1-.748.716H7.433a.75.75 0 0 1-.749-.716L6.034 6ZM10.5 9A.75.75 0 0 0 9 9v9a.75.75 0 0 0 1.5 0V9ZM15 9a.75.75 0 0 0-1.5 0v9a.75.75 0 0 0 1.5 0V9Z" class="Icon"/>
  </g>
</svg>
